X: 5
T: Prószy śnieżyk i prószy płatkami
C: Bolesław Jan Ćwiklicz
%%abc-version 2.0
%%abcx-abcm2ps-target-version 5.9.1 (29 Sep 2008)
%%abc-creator hum2abc beta
%%abcx-conversion-date 2021/10/04 07:38:41
%%abc-edited-by Jędrzej Mróz
%%abc-edited-by Tomasz Grochalski
%%abcx-initial-encoding-date 2021-08-12
%%humdrum-veritas 2542258111
%%humdrum-veritas-data 492595359
%%linebreak <none>
%%barnumbers 0
L: 1/4
M: 5/4
N: Derived from pl-kozmzk--mzk-m-137--003_cwiklicz-boleslaw-jan-proszy-sniezyk-i-proszy-platkami.krn
%%staves {1 2}
V: 1 clef=treble
V: 2 clef=bass
K: G
[V:1] E/G/d2^AF & zzE/G/F^D | 
[V:2] zzzzz/ B,,/ & z5 | 
[V:1] =AGFG/F/E & E2>^D2E | 
[V:2] C,B,,C,B,,B,, & zzA,,A,,G,, | 
[V:1] c>Bd2c/B/ & EEFGG/G/ | 
[V:2] A,,>B,,C,D,E,/D,/ & A,,/G,,/ F,,/G,,/A,,B,,C,/D,/ | 
[V:1] AG/F/B2B & FG/E<^DE/F | 
[V:2] D,D,/C,<B,,^C,/^D, & C,B,,/A,,/A,,2A,, | 
[V:1] e^dB=d^c/A/ & B/c/BF/B/BA/A/ | 
[V:2] E,F,/E,/^D,E,/=F,/ E,/E,/ & G,,B,,>A,,^G,,A,,/^C,/ | 
[V:1] =cBAd/c/B & G/^F/GFFG | 
[V:2] E,D,D,D,D, & =C,D,>C, B,,/A,,/G,, | 
[V:1] ABc2B/A/ & GGA2F/E/ | 
[V:2] E,E,E,2^D,/E,/ & C,B,,A,,F,,B,,/C,/ | 
[V:1] ^GF/B/B2B & E^D/D/^CDE | 
[V:2] B,,B,,/B,,<B,,A,,/^G,, & B,,A,,/A,,<^G,,F,,/E,, | 
[V:1] ABcBF & E^GAFF | 
[V:2] =C,/E,/E,2F,^D, & A,,/C,/E,2^D,B,, | 
[V:1] ^GABcB & EEEE^D | 
[V:2] E,F,^G,A,F, & =D,C,B,,A,,/F,,/B,, | 
[V:1] E/=G/B2^AF/G/ & EF/^D/E/G/ F/E/ D/D/ | 
[V:2] E,/=G,/B,2^A,F,/G,/ & E,/B,,/ ^D,/B,,/^C,F,,B,,/B,,/ | 
[V:1] =AGFG/F/E & EEE^DE | 
[V:2] =A,G,F,G,/F,/E, & C,/F,,/ B,,/^A,,/ =A,,/C,/ B,,/A,,/G,, | 
[V:1] Ee2dc/B/ & Cc2GG/G/ | 
[V:2] E,/F,/G,2G,E,/D,/ & C,2B,,/A,,/B,,C,/D,/ | 
[V:1] g2f/e/^de & G2G/G/ B/=A/G | 
[V:2] E,D,^C,F,E, & C,B,,^A,,B,,[E,,B,,] | 
[V:1] f3e2 & [B^d][^A^c]>[d=A][G2e2] |]  
[V:2] E,3-E,2 & [E,,3B,,3]-[E,,2B,,2] |]  


